X:30
M:4/4
L:1/4
Q:1/2=105
K:Dmin
d/e/f/g/ae | fe/d/^cB/^c/ | dDF/G/A | E2"^crot in MS"D2 :|
 |: FcAc | Fcc>B | AdGd | ^Fdd3/2c/4B/4 |
cgeg | Bgg/4f/4g3/2 | aAB/c/d | d>cd2 :|

